images/sprite/linkedin.svg

<svg width="20" height="18" viewBox="0 0 20 18" fill="none" xmlns="http://www.w3.org/2000/svg">
<path d="M4.94141 2.00002C4.94114 2.53046 4.73017 3.03906 4.35491 3.41394C3.97965 3.78883 3.47084 3.99929 2.94041 3.99902C2.40997 3.99876 1.90137 3.78779 1.52649 3.41253C1.1516 3.03727 0.941141 2.52846 0.941407 1.99802C0.941672 1.46759 1.15264 0.958988 1.5279 0.584103C1.90316 0.209218 2.41197 -0.00124153 2.94241 -0.000976312C3.47284 -0.000711096 3.98144 0.210257 4.35633 0.585517C4.73121 0.960777 4.94167 1.46959 4.94141 2.00002ZM5.00141 5.48002H1.00141V18H5.00141V5.48002ZM11.3214 5.48002H7.34141V18H11.2814V11.43C11.2814 7.77002 16.0514 7.43002 16.0514 11.43V18H20.0014V10.07C20.0014 3.90002 12.9414 4.13002 11.2814 7.16002L11.3214 5.48002Z" fill="url(#paint0_linear_1_259)"/>
<defs>
<linearGradient id="paint0_linear_1_259" x1="0.941407" y1="8.99952" x2="15.6918" y2="2.69002" gradientUnits="userSpaceOnUse">
<stop stop-color="#FF62B7"/>
<stop offset="1" stop-color="#9F53FF"/>
</linearGradient>
</defs>
</svg>

<svg xmlns="http://www.w3.org/2000/svg" width="20" height="18" fill="none"><path fill="url(#a)" d="M4.941 2a2 2 0 1 1-4-.002 2 2 0 0 1 4 .002Zm.06 3.48h-4V18h4V5.48Zm6.32 0h-3.98V18h3.94v-6.57c0-3.66 4.77-4 4.77 0V18h3.95v-7.93c0-6.17-7.06-5.94-8.72-2.91l.04-1.68Z"/><defs><linearGradient id="a" x1=".941" x2="15.692" y1="9" y2="2.69" gradientUnits="userSpaceOnUse"><stop stop-color="#FF62B7"/><stop offset="1" stop-color="#9F53FF"/></linearGradient></defs></svg>
